X:7739
T:Jack upon the Green
M:6/8
L:1/8
K:G
DG2GA2|A B/2sc/2dBs G2|G A2A B2|A G2G A2|A B/2sc/2dBs g2|dB2cd2:|!
eg2gg2|fe2ea2|aa2 g f2|e/2sf/2s g2 g g2|f e2 fg2|d d2 c B:|
